X: 2656
T: Banjo Breakdown
R: jig
M: 6/8
K: Amajor
Ac/e/ a/e/c/e/|Ad/f/ a/f/d/f/|Ac/e/ a/e/c/e/|
Ac/e/ a/e/c/e/|Ad/f/ a/f/d/f/|f/g/a/f/ e/c/d/B/|AA/A/ A:|
a/e/c/e/ A/e/c/e/|a/f/d/f/ A/f/d/f/|a/e/c/e/ A/e/c/e/|
a/e/c/e/ A/e/c/e/|a/f/d/f/ A/f/d/f/|f/g/a/f/ e/c/d/B/|AA/A/ A:|
A/c/e/c/ A/c/e/c/|B/d/f/d/ B/d/f/d/|A/c/e/c/ A/c/e/c/|
A/c/e/c/ A/c/e/c/|B/d/f/d/ B/d/f/d/|f/g/a/f/ e/c/d/B/|AA/A/ A:|

